src/assets/images/logo.svg

<svg width="60" height="54" viewBox="0 0 60 54" fill="none" xmlns="http://www.w3.org/2000/svg">
<g clip-path="url(#clip0_342_543)">
<path d="M0.650606 43.5273H0.689669C0.918205 43.5273 1.12192 43.6755 1.19858 43.8979L3.16341 49.5847C3.19773 49.6834 3.33281 49.6834 3.36712 49.5847L5.32721 43.8983C5.40388 43.6759 5.60759 43.5273 5.83612 43.5273H5.87482C6.24866 43.5273 6.50932 43.91 6.38337 44.2733L4.0845 50.9044C4.00747 51.126 3.80412 51.2742 3.57595 51.2742H2.94911C2.72094 51.2742 2.51723 51.126 2.44057 50.9044L0.142057 44.2733C0.0161063 43.91 0.276769 43.5273 0.650606 43.5273Z" fill="white"/>
<path d="M7.3983 44.5944C7.26468 44.4564 7.19788 44.2895 7.19788 44.0931C7.19788 43.8967 7.26468 43.7301 7.3983 43.5917C7.53192 43.4537 7.69365 43.3848 7.88385 43.3848C8.07405 43.3848 8.23542 43.4537 8.3694 43.5917C8.50302 43.7297 8.56983 43.8967 8.56983 44.0931C8.56983 44.2895 8.50302 44.4564 8.3694 44.5944C8.23578 44.7324 8.07405 44.8014 7.88385 44.8014C7.69365 44.8014 7.53192 44.7324 7.3983 44.5944ZM7.32456 50.7154V46.1871C7.32456 45.8791 7.5666 45.6292 7.86487 45.6292H7.90283C8.2011 45.6292 8.44315 45.8791 8.44315 46.1871V50.7154C8.44315 51.0234 8.2011 51.2733 7.90283 51.2733H7.86487C7.5666 51.2733 7.32456 51.0234 7.32456 50.7154Z" fill="white"/>
<path d="M9.49414 47.352V47.216C9.49414 46.7764 9.64784 46.4025 9.95596 46.0938C10.2637 45.785 10.6339 45.6309 11.0665 45.6309H13.7341C14.0324 45.6309 14.2744 45.8808 14.2744 46.1888V46.2227C14.2744 46.5307 14.0324 46.7806 13.7341 46.7806H11.0665C10.9398 46.7806 10.8318 46.8232 10.742 46.9087C10.6522 46.9939 10.6073 47.0968 10.6073 47.2167V47.3528C10.6073 47.4764 10.6522 47.5816 10.742 47.6687C10.8318 47.7558 10.9398 47.7995 11.0665 47.7995H13.0609C13.4935 47.7995 13.863 47.9548 14.1689 48.2654C14.4749 48.576 14.6278 48.9511 14.6278 49.3902V49.6843C14.6278 50.1238 14.4749 50.4989 14.1689 50.8091C13.863 51.1197 13.4935 51.275 13.0609 51.275H10.2827C9.98444 51.275 9.74239 51.0251 9.74239 50.7171V50.6832C9.74239 50.3752 9.98444 50.1253 10.2827 50.1253H13.0609C13.1876 50.1253 13.2957 50.0816 13.3855 49.9945C13.4753 49.9074 13.5202 49.8019 13.5202 49.6786V49.3951C13.5202 49.2719 13.4753 49.1656 13.3855 49.0766C13.2957 48.9877 13.1876 48.9432 13.0609 48.9432H11.0665C10.6339 48.9432 10.2637 48.7879 9.95596 48.4773C9.6482 48.1666 9.49414 47.7916 9.49414 47.3524V47.352Z" fill="white"/>
<path d="M15.6793 49.2352V46.1868C15.6793 45.8788 15.9214 45.6289 16.2196 45.6289H16.2525C16.5508 45.6289 16.7928 45.8788 16.7928 46.1868V49.219C16.7928 49.4731 16.8764 49.6895 17.0432 49.8674C17.2104 50.0453 17.4134 50.1343 17.6525 50.1343H19.4808C19.5403 50.1343 19.5889 50.0841 19.5889 50.0227V46.1868C19.5889 45.8788 19.8309 45.6289 20.1292 45.6289H20.1621C20.4603 45.6289 20.7024 45.8788 20.7024 46.1868V50.129C20.7024 50.4449 20.5925 50.7148 20.3727 50.938C20.1529 51.1615 19.8883 51.2731 19.5787 51.2731H17.6529C17.1111 51.2731 16.6468 51.0733 16.2602 50.6737C15.8732 50.2741 15.6797 49.7946 15.6797 49.2356L15.6793 49.2352Z" fill="white"/>
<path d="M21.7534 49.2352V47.6554C21.7534 47.096 21.9462 46.6184 22.3313 46.2226C22.7165 45.8268 23.1816 45.6289 23.727 45.6289H26.2362C26.5344 45.6289 26.7765 45.8788 26.7765 46.1868V50.7152C26.7765 51.0231 26.5344 51.2731 26.2362 51.2731H26.2033C25.905 51.2731 25.663 51.0231 25.663 50.7152V46.8902C25.663 46.8288 25.6144 46.7786 25.5549 46.7786H23.7266C23.4875 46.7786 23.2842 46.8649 23.1173 47.0372C22.9505 47.2095 22.8669 47.4194 22.8669 47.6664V49.2243C22.8669 49.4712 22.9512 49.6827 23.1203 49.8591C23.2889 50.0351 23.4912 50.1233 23.727 50.1233H24.49C24.7883 50.1233 25.0303 50.3733 25.0303 50.6812V50.7152C25.0303 51.0231 24.7883 51.2731 24.49 51.2731H23.727C23.1852 51.2731 22.7209 51.0733 22.3343 50.6737C21.9473 50.2741 21.7538 49.7946 21.7538 49.2356L21.7534 49.2352Z" fill="white"/>
<path d="M27.8804 50.7163V44.0852C27.8804 43.7773 28.1224 43.5273 28.4207 43.5273H28.4535C28.7518 43.5273 28.9938 43.7773 28.9938 44.0852V50.7163C28.9938 51.0242 28.7518 51.2742 28.4535 51.2742H28.4207C28.1224 51.2742 27.8804 51.0242 27.8804 50.7163Z" fill="white"/>
<path d="M32.9313 49.1059V44.0852C32.9313 43.7773 33.1733 43.5273 33.4716 43.5273H33.499C33.7972 43.5273 34.0393 43.7773 34.0393 44.0852V49.1059C34.0393 49.3894 34.136 49.6306 34.3295 49.8304C34.523 50.0302 34.7552 50.1301 35.0261 50.1301H38.2055C38.5038 50.1301 38.7458 50.38 38.7458 50.688V50.7163C38.7458 51.0242 38.5038 51.2742 38.2055 51.2742H35.0261C34.4493 51.2742 33.956 51.0627 33.5461 50.6394C33.1364 50.2164 32.9313 49.7049 32.9313 49.1059Z" fill="white"/>
<path d="M39.3749 49.2372V47.6574C39.3749 47.098 39.5676 46.6204 39.9528 46.2246C40.3379 45.8288 40.803 45.6309 41.3485 45.6309H43.8576C44.1559 45.6309 44.3979 45.8808 44.3979 46.1888V50.7171C44.3979 51.0251 44.1559 51.275 43.8576 51.275H43.8248C43.5265 51.275 43.2845 51.0251 43.2845 50.7171V46.8922C43.2845 46.8307 43.2359 46.7806 43.1764 46.7806H41.3481C41.109 46.7806 40.9056 46.8669 40.7388 47.0392C40.5716 47.2118 40.4884 47.4214 40.4884 47.6683V49.2263C40.4884 49.4732 40.5727 49.6846 40.7417 49.8611C40.9104 50.0371 41.1126 50.1253 41.3485 50.1253H42.1115C42.4097 50.1253 42.6518 50.3752 42.6518 50.6832V50.7171C42.6518 51.0251 42.4097 51.275 42.1115 51.275H41.3485C40.8067 51.275 40.3423 51.0752 39.9557 50.6757C39.5687 50.2761 39.3752 49.7966 39.3752 49.2376L39.3749 49.2372Z" fill="white"/>
<path d="M45.8629 45.6309H45.8866C46.1119 45.6309 46.3134 45.7752 46.3926 45.9931L47.5806 49.2666C47.6156 49.3627 47.7471 49.3635 47.7828 49.2674L48.9989 45.9893C49.0788 45.7733 49.2796 45.6309 49.5034 45.6309H49.5735C49.9528 45.6309 50.2142 46.024 50.0777 46.3893L47.5926 53.0422C47.5123 53.2574 47.3119 53.3992 47.0885 53.3992H47.0235C46.6453 53.3992 46.3842 53.0083 46.5182 52.6434L47.0896 51.0896L45.3576 46.387C45.2233 46.0218 45.4843 45.6309 45.8625 45.6309H45.8629Z" fill="white"/>
<path d="M51.043 49.6839V46.7964C51.043 46.4734 51.1572 46.1982 51.3858 45.9713C51.6143 45.7443 51.8888 45.6309 52.209 45.6309H54.4882C54.9244 45.6309 55.2961 45.7907 55.6042 46.1103C55.912 46.43 56.066 46.8168 56.066 47.2706V47.4286C56.066 47.8753 55.912 48.2575 55.6042 48.5753C55.2964 48.893 54.9244 49.0521 54.4882 49.0521H53.3294C53.0312 49.0521 52.7891 48.8022 52.7891 48.4942V48.4659C52.7891 48.158 53.0312 47.9081 53.3294 47.9081H54.4988C54.6254 47.9081 54.7335 47.8609 54.8233 47.7663C54.9131 47.6721 54.958 47.5575 54.958 47.4233V47.2706C54.958 47.1364 54.9131 47.0211 54.8233 46.9246C54.7335 46.8285 54.6254 46.7802 54.4988 46.7802H52.6964C52.3981 46.7802 52.1561 47.0301 52.1561 47.3381V49.6786C52.1561 49.8023 52.1966 49.9074 52.2773 49.9945C52.3583 50.0816 52.4565 50.1253 52.5726 50.1253H55.1398C55.4381 50.1253 55.6801 50.3752 55.6801 50.6832V50.7171C55.6801 51.0251 55.4381 51.275 55.1398 51.275H52.5726C52.1506 51.275 51.7899 51.1197 51.4909 50.8091C51.1919 50.4985 51.0426 50.1234 51.0426 49.6843L51.043 49.6839Z" fill="white"/>
<path d="M57.6577 51.2746C57.3595 51.2746 57.1174 51.0247 57.1174 50.7167V47.2107C57.1174 46.7749 57.2711 46.4025 57.5792 46.0938C57.887 45.785 58.2572 45.6309 58.6898 45.6309H59.3685C59.6667 45.6309 59.9088 45.8808 59.9088 46.1888V46.217C59.9088 46.525 59.6667 46.7749 59.3685 46.7749H58.6898C58.5631 46.7749 58.4551 46.8194 58.3653 46.9084C58.2754 46.9973 58.2305 47.1055 58.2305 47.2325V50.7171C58.2305 51.0251 57.9885 51.275 57.6902 51.275H57.6574L57.6577 51.2746Z" fill="white"/>
<path d="M22.5634 2.94777L21.8212 0.613281H12.2643L16.4875 12.9069L22.5634 2.94777Z" fill="#FF4500"/>
<path d="M49.6523 0.613281H40.1476L36.2164 12.9069L46.9485 8.48412L49.6523 0.613281Z" fill="#A4C217"/>
<path d="M46.9486 8.48412L40.1476 0.613281H49.6523L46.9486 8.48412Z" fill="#D5CA29"/>
<path d="M25.7461 12.9064L22.5634 2.94727L18.3475 9.85725L25.7461 12.9064Z" fill="#D6493E"/>
<path d="M21.6424 27.9129L30.9583 29.3498L25.7462 12.9062L19.4121 21.4209L21.6424 27.9129Z" fill="#A63B94"/>
<path d="M30.9583 29.3498L40.2728 27.917L42.6322 21.0485L36.2164 12.9062L30.9583 29.3498Z" fill="#2DB686"/>
<path d="M30.9583 29.3496L36.5772 38.6751H25.3395L30.9583 29.3496Z" fill="#0197D8"/>
<path d="M30.9583 29.351L25.3394 38.6765L21.6423 27.9141L30.9583 29.351Z" fill="#336C9B"/>
<path d="M36.5771 38.6763L40.2728 27.918L30.9583 29.3508L36.5771 38.6763Z" fill="#26BF79"/>
<path d="M19.412 21.4207L25.7461 12.906L14.9603 8.46094L19.412 21.4207Z" fill="#CC4E84"/>
<path d="M42.6323 21.0494L36.2164 12.9072L46.9485 8.48438L42.6323 21.0494Z" fill="#1BC07D"/>
</g>
<defs>
<clipPath id="clip0_342_543">
<rect width="60" height="53" fill="white" transform="translate(0 0.5)"/>
</clipPath>
</defs>
</svg>

<svg xmlns="http://www.w3.org/2000/svg" width="60" height="54" fill="none"><g clip-path="url(#a)"><path fill="#fff" d="M.65 43.527h.04c.228 0 .432.148.509.37l1.964 5.688c.035.098.17.098.204 0l1.96-5.687a.542.542 0 0 1 .51-.37h.038c.374 0 .634.382.508.745l-2.298 6.631a.542.542 0 0 1-.509.37h-.627a.541.541 0 0 1-.508-.37l-2.299-6.63c-.126-.364.135-.747.509-.747ZM7.398 44.594a.694.694 0 0 1-.2-.5c0-.197.067-.364.2-.502a.65.65 0 0 1 .486-.207c.19 0 .351.069.485.207.134.138.2.305.2.501a.694.694 0 0 1-.2.501.65.65 0 0 1-.485.207.65.65 0 0 1-.486-.207Zm-.073 6.121v-4.528a.55.55 0 0 1 .54-.558h.038c.298 0 .54.25.54.558v4.528a.55.55 0 0 1-.54.558h-.038a.55.55 0 0 1-.54-.558ZM9.494 47.352v-.136c0-.44.154-.813.462-1.122a1.511 1.511 0 0 1 1.11-.463h2.668c.298 0 .54.25.54.558v.034a.55.55 0 0 1-.54.558h-2.668a.453.453 0 0 0-.324.128.41.41 0 0 0-.135.308v.136c0 .123.045.229.135.316a.45.45 0 0 0 .324.13h1.995c.432 0 .802.156 1.108.466.306.311.459.686.459 1.125v.294c0 .44-.153.815-.46 1.125-.305.31-.675.466-1.107.466h-2.778a.55.55 0 0 1-.54-.558v-.034a.55.55 0 0 1 .54-.558h2.778a.45.45 0 0 0 .325-.13.424.424 0 0 0 .134-.316v-.284a.433.433 0 0 0-.134-.318.445.445 0 0 0-.325-.134h-1.995c-.432 0-.802-.155-1.11-.466a1.54 1.54 0 0 1-.462-1.125ZM15.68 49.235v-3.048a.55.55 0 0 1 .54-.558h.033c.298 0 .54.25.54.558v3.032c0 .254.083.47.25.648.167.178.37.267.61.267h1.828a.11.11 0 0 0 .108-.111v-3.836a.55.55 0 0 1 .54-.558h.033c.298 0 .54.25.54.558v3.942c0 .316-.11.586-.33.809-.22.223-.484.335-.793.335h-1.926c-.542 0-1.006-.2-1.393-.6-.387-.399-.58-.878-.58-1.437ZM21.753 49.235v-1.58c0-.559.193-1.037.578-1.432.386-.396.85-.594 1.396-.594h2.51c.297 0 .54.25.54.558v4.528a.55.55 0 0 1-.54.558h-.034a.55.55 0 0 1-.54-.558V46.89a.11.11 0 0 0-.108-.111h-1.828a.817.817 0 0 0-.61.258.871.871 0 0 0-.25.63v1.557c0 .247.084.459.253.635a.81.81 0 0 0 .607.264h.763c.298 0 .54.25.54.558v.034a.55.55 0 0 1-.54.558h-.763c-.542 0-1.006-.2-1.393-.6-.387-.399-.58-.878-.58-1.437ZM27.88 50.716v-6.63a.55.55 0 0 1 .54-.559h.033c.299 0 .54.25.54.558v6.631a.55.55 0 0 1-.54.558h-.032a.55.55 0 0 1-.54-.558ZM32.931 49.106v-5.02a.55.55 0 0 1 .54-.559h.028c.298 0 .54.25.54.558v5.02c0 .284.097.526.29.725.194.2.426.3.697.3h3.18c.298 0 .54.25.54.558v.028a.55.55 0 0 1-.54.558h-3.18c-.577 0-1.07-.211-1.48-.635a2.125 2.125 0 0 1-.615-1.533ZM39.375 49.237v-1.58c0-.559.193-1.037.578-1.432.385-.396.85-.594 1.395-.594h2.51c.298 0 .54.25.54.558v4.528a.55.55 0 0 1-.54.558h-.033a.55.55 0 0 1-.54-.558v-3.825a.11.11 0 0 0-.109-.111h-1.828a.817.817 0 0 0-.61.258.87.87 0 0 0-.25.63v1.557c0 .247.085.459.254.635.168.176.37.264.607.264h.763c.298 0 .54.25.54.558v.034a.55.55 0 0 1-.54.558h-.764a1.87 1.87 0 0 1-1.392-.6c-.387-.399-.58-.878-.58-1.437h-.001ZM45.863 45.63h.024c.225 0 .426.145.506.363l1.188 3.274a.107.107 0 0 0 .202 0l1.216-3.278a.54.54 0 0 1 .504-.358h.07c.38 0 .641.393.505.758l-2.485 6.653a.54.54 0 0 1-.505.357h-.065c-.378 0-.639-.39-.505-.756l.572-1.553-1.732-4.703c-.135-.365.126-.756.505-.756ZM51.043 49.684v-2.888c0-.323.114-.598.343-.825.228-.227.503-.34.823-.34h2.28c.435 0 .807.16 1.115.48.308.319.462.706.462 1.16v.158c0 .446-.154.828-.462 1.146-.308.318-.68.477-1.116.477H53.33a.55.55 0 0 1-.54-.558v-.028a.55.55 0 0 1 .54-.558h1.17a.431.431 0 0 0 .324-.142.48.48 0 0 0 .135-.343v-.152a.49.49 0 0 0-.135-.346.428.428 0 0 0-.324-.145h-1.803a.55.55 0 0 0-.54.558v2.34c0 .124.04.23.121.317.081.087.18.13.296.13h2.567c.298 0 .54.25.54.558v.034a.55.55 0 0 1-.54.558h-2.567c-.422 0-.783-.155-1.082-.466a1.563 1.563 0 0 1-.448-1.125ZM57.658 51.275a.55.55 0 0 1-.54-.558V47.21c0-.436.153-.808.461-1.117a1.511 1.511 0 0 1 1.11-.463h.68c.298 0 .54.25.54.558v.028a.55.55 0 0 1-.54.558h-.68a.444.444 0 0 0-.324.133.439.439 0 0 0-.135.325v3.484a.55.55 0 0 1-.54.558h-.033Z"/><path fill="#FF4500" d="M22.563 2.948 21.821.613h-9.557l4.224 12.294 6.075-9.96Z"/><path fill="#A4C217" d="M49.652.613h-9.504l-3.932 12.294L46.95 8.484l2.703-7.87Z"/><path fill="#D5CA29" d="M46.949 8.484 40.148.614h9.504l-2.703 7.87Z"/><path fill="#D6493E" d="m25.746 12.906-3.183-9.959-4.215 6.91 7.398 3.05Z"/><path fill="#A63B94" d="m21.642 27.913 9.316 1.437-5.212-16.444-6.334 8.515 2.23 6.492Z"/><path fill="#2DB686" d="m30.958 29.35 9.315-1.433 2.36-6.869-6.417-8.142-5.258 16.444Z"/><path fill="#0197D8" d="m30.958 29.35 5.62 9.325H25.338l5.62-9.325Z"/><path fill="#336C9B" d="m30.958 29.351-5.619 9.325-3.697-10.762 9.316 1.437Z"/><path fill="#26BF79" d="m36.577 38.676 3.696-10.758-9.315 1.433 5.62 9.325Z"/><path fill="#CC4E84" d="m19.412 21.42 6.334-8.514L14.96 8.461l4.452 12.96Z"/><path fill="#1BC07D" d="m42.632 21.05-6.416-8.143L46.95 8.484 42.632 21.05Z"/></g><defs><clipPath id="a"><path fill="#fff" d="M0 .5h60v53H0z"/></clipPath></defs></svg>
